X:1
T:[ID 2-41a]
T:[ID 2-41a]
T:Bezeichnung standardisiert: Polonaise nach Blitz; Polonoise In dieser Quelle auch als: Polonaise In dieser Quelle auch als: Polonoise Nach Blitz In dieser Quelle auch als: Polon\"aise In anderer Quelle: Polonoise - Hs. \"OVLA E-97/E-149 um 1750 (Anm. S. Wascher);  Polonaise, Niederschrift L. Mozart 1762 (Anm. S. Wascher);
T:Urheber unbekannt Erstbeleg: um 1750 (Wissenschaftliche Sch\"atzung Erstbeleg: 1767 (Datum in der schriftlichen Quelle) Datum in der hier transkribierten schriftlichen Quelle: 1799
C:Urheber unbekannt
C:Erstbeleg: um 1750 (Wissenschaftliche Sch\"atzung
C:Erstbeleg: 1767 (Datum in der schriftlichen Quelle)
C:Datum in der hier transkribierten schriftlichen Quelle: 1799
%%score 1 2
L:1/8
M:3/4
K:D
V:1 treble nm="Violino Primo"
V:2 treble nm="Violino Secondo"
V:1
 d2 A2 d2 | ee e/f/g/e/ f2 | ee e/f/g/e/ f2 | gb ba/g/ af | eg gf/e/ fd | c/d/e/c/ d2 D2 :: %6
 e2 A2 g2 | ff f/a/g/f/ e2 | e2 A2 g2 | ff f/a/g/f/ e2 | gb ba/g/ af | eg gf/e/ fd | %12
 c/d/e/c/ d2 D2 :| %13
V:2
 !fermata!E2 E2 E2 | BB B/c/d/B/ c2 | BB B/c/d/B/ c2 | df fe/d/ ec | Bd dc/B/ cA | %5
 D/E/F/D/ E2 E2 :: B2 B2 d2 | cc c/e/d/c/ B2 | B2 B2 d2 | cc c/e/d/c/ B2 | df fe/d/ ec | %11
 Bd dc/B/ cE | D/E/F/D/ E2 E2 :| %13

